X: 073
T: Guthrie Castle
R: reel
M: C|
L: 1/8
Z: 2012 John Chambers <jc:trillian.mit.edu>
B: J. Anderson "Budget of Strathspeys, Reels and Country Dances" (Early 1800s) p.7 #3
F: http://imslp.org/wiki/Anderson%27s_Budget_of_Strathspeys,_Reels_and_Country_Dances_(Various)
K: D
|:\
D3d dAFA | GE E(c/d/) efge | dAFA defd | fbag (fd)d2 :|
fdad bdad | gebe c'ebe | fdad bdaf | gbag fdda |
fdad bdad | gfef gabg | Bdce dfeg | fbag (fd)d2 |]

%%sep 2 1 500
%%sep 1 1 500

